X:260
T:Reel 260
M:4/4
K:Dmaj
L:1/8
FG|A2FD EDB,C|D2FA BcdB|A2FD EDB,A,|B,EED EABA|F2FD EDB,D|A,DFA G2FE|A2FD EDB,C|DFEC D2|FG|A2BA BAFA|Adcd BAFE|A2AA Bcde|fede e2dB|A2AB B2dB|AFFF G2FG|F2FD EDB,D|A,DDE D2|
